Newaita-dark/.places-mint/24/folder-unlocked.svg

<?xml version="1.0" encoding="UTF-8"?>
<svg xmlns="http://www.w3.org/2000/svg" xmlns:xlink="http://www.w3.org/1999/xlink" width="24px" height="24px" viewBox="0 0 24 24" version="1.1">
<defs>
<linearGradient id="linear0" gradientUnits="userSpaceOnUse" x1="254" y1="233.5" x2="254" y2="254.666672" gradientTransform="matrix(0.0468795,0,0,0.0468795,-0.0000028613,10.07909)">
<stop offset="0" style="stop-color:rgb(0%,0%,0%);stop-opacity:0.27451;"/>
<stop offset="1" style="stop-color:rgb(0%,0%,0%);stop-opacity:0;"/>
</linearGradient>
<radialGradient id="radial0" gradientUnits="userSpaceOnUse" cx="450.908936" cy="189.579361" fx="450.908936" fy="189.579361" r="21.166656" gradientTransform="matrix(0.000000130628,-0.0585994,-0.105479,-0.0000000761539,40.58641,47.696501)">
<stop offset="0" style="stop-color:rgb(0%,0%,0%);stop-opacity:0.313726;"/>
<stop offset="0.222222" style="stop-color:rgb(0%,0%,0%);stop-opacity:0.27451;"/>
<stop offset="1" style="stop-color:rgb(0%,0%,0%);stop-opacity:0;"/>
</radialGradient>
<radialGradient id="radial1" gradientUnits="userSpaceOnUse" cx="450.908936" cy="189.579361" fx="450.908936" fy="189.579361" r="21.166656" gradientTransform="matrix(-0.000000130628,0.0585994,0.105479,0.0000000761539,-16.771633,-5.645608)">
<stop offset="0" style="stop-color:rgb(0%,0%,0%);stop-opacity:0.313726;"/>
<stop offset="0.222222" style="stop-color:rgb(0%,0%,0%);stop-opacity:0.27451;"/>
<stop offset="1" style="stop-color:rgb(0%,0%,0%);stop-opacity:0;"/>
</radialGradient>
<radialGradient id="radial2" gradientUnits="userSpaceOnUse" cx="450.908936" cy="189.579361" fx="450.908936" fy="189.579361" r="21.166656" gradientTransform="matrix(-0.000000130628,-0.0585994,0.105479,-0.0000000761539,-16.771633,47.696501)">
<stop offset="0" style="stop-color:rgb(0%,0%,0%);stop-opacity:0.313726;"/>
<stop offset="0.222222" style="stop-color:rgb(0%,0%,0%);stop-opacity:0.27451;"/>
<stop offset="1" style="stop-color:rgb(0%,0%,0%);stop-opacity:0;"/>
</radialGradient>
<radialGradient id="radial3" gradientUnits="userSpaceOnUse" cx="450.908936" cy="189.579361" fx="450.908936" fy="189.579361" r="21.166656" gradientTransform="matrix(0.000000130628,0.0585994,-0.105479,0.0000000761539,40.586408,-5.645608)">
<stop offset="0" style="stop-color:rgb(0%,0%,0%);stop-opacity:0.313726;"/>
<stop offset="0.222222" style="stop-color:rgb(0%,0%,0%);stop-opacity:0.27451;"/>
<stop offset="1" style="stop-color:rgb(0%,0%,0%);stop-opacity:0;"/>
</radialGradient>
<linearGradient id="linear1" gradientUnits="userSpaceOnUse" x1="254" y1="-147.5" x2="254" y2="-31.083334" gradientTransform="matrix(0.0468795,0,0,0.0468795,0.000000937315,10.079086)">
<stop offset="0" style="stop-color:rgb(64.313728%,64.313728%,64.313728%);stop-opacity:0;"/>
<stop offset="1" style="stop-color:rgb(100%,100%,100%);stop-opacity:0.196078;"/>
</linearGradient>
<linearGradient id="linear2" gradientUnits="userSpaceOnUse" x1="254" y1="233.5" x2="254" y2="-105.166656" gradientTransform="matrix(0.0468795,0,0,0.0468795,-0.0000013593,10.079087)">
<stop offset="0" style="stop-color:rgb(34.509805%,34.509805%,34.509805%);stop-opacity:0;"/>
<stop offset="1" style="stop-color:rgb(98.039216%,98.039216%,98.039216%);stop-opacity:0.196078;"/>
</linearGradient>
</defs>
<g id="surface1">
<path style=" stroke:none;fill-rule:nonzero;fill:url(#linear0);" d="M 2.976562 21.027344 L 20.839844 21.027344 L 20.839844 22.019531 L 2.976562 22.019531 Z M 2.976562 21.027344 "/>
<path style=" stroke:none;fill-rule:nonzero;fill:url(#radial0);" d="M 20.839844 21.027344 L 22.824219 21.027344 L 22.824219 20.03125 L 20.839844 20.03125 Z M 20.839844 21.027344 "/>
<path style=" stroke:none;fill-rule:nonzero;fill:url(#radial1);" d="M 2.976562 21.027344 L 0.992188 21.027344 L 0.992188 22.019531 L 2.976562 22.019531 Z M 2.976562 21.027344 "/>
<path style=" stroke:none;fill-rule:nonzero;fill:url(#radial2);" d="M 2.976562 21.027344 L 0.992188 21.027344 L 0.992188 20.03125 L 2.976562 20.03125 Z M 2.976562 21.027344 "/>
<path style=" stroke:none;fill-rule:nonzero;fill:url(#radial3);" d="M 20.839844 21.027344 L 22.824219 21.027344 L 22.824219 22.019531 L 20.839844 22.019531 Z M 20.839844 21.027344 "/>
<path style=" stroke:none;fill-rule:nonzero;fill:rgb(61.176473%,80.000001%,39.607844%);fill-opacity:1;" d="M 5.457031 3.164062 L 21.582031 3.164062 C 22.128906 3.164062 22.574219 3.609375 22.574219 4.15625 L 22.574219 7.878906 C 22.574219 8.425781 22.128906 8.871094 21.582031 8.871094 L 5.457031 8.871094 C 4.910156 8.871094 4.464844 8.425781 4.464844 7.878906 L 4.464844 4.15625 C 4.464844 3.609375 4.910156 3.164062 5.457031 3.164062 Z M 5.457031 3.164062 "/>
<path style=" stroke:none;fill-rule:nonzero;fill:url(#linear1);" d="M 5.457031 3.164062 L 21.582031 3.164062 C 22.128906 3.164062 22.574219 3.609375 22.574219 4.15625 L 22.574219 7.878906 C 22.574219 8.425781 22.128906 8.871094 21.582031 8.871094 L 5.457031 8.871094 C 4.910156 8.871094 4.464844 8.425781 4.464844 7.878906 L 4.464844 4.15625 C 4.464844 3.609375 4.910156 3.164062 5.457031 3.164062 Z M 5.457031 3.164062 "/>
<path style=" stroke:none;fill-rule:nonzero;fill:rgb(100%,100%,100%);fill-opacity:0.392157;" d="M 5.457031 3.226562 C 4.90625 3.226562 4.464844 3.667969 4.464844 4.21875 L 4.464844 4.34375 C 4.464844 3.792969 4.90625 3.351562 5.457031 3.351562 L 21.582031 3.351562 C 22.132812 3.351562 22.574219 3.792969 22.574219 4.34375 L 22.574219 4.21875 C 22.574219 3.667969 22.132812 3.226562 21.582031 3.226562 Z M 5.457031 3.226562 "/>
<path style=" stroke:none;fill-rule:nonzero;fill:rgb(12.941177%,12.941177%,12.941177%);fill-opacity:1;" d="M 5.457031 3.09375 C 4.871094 3.09375 4.394531 3.570312 4.394531 4.15625 L 4.394531 7.878906 C 4.394531 8.464844 4.871094 8.941406 5.457031 8.941406 L 21.582031 8.941406 C 22.167969 8.941406 22.644531 8.464844 22.644531 7.878906 L 22.644531 4.15625 C 22.644531 3.570312 22.167969 3.09375 21.582031 3.09375 Z M 5.457031 3.234375 L 21.582031 3.234375 C 22.09375 3.234375 22.503906 3.644531 22.503906 4.15625 L 22.503906 7.878906 C 22.503906 8.390625 22.09375 8.800781 21.582031 8.800781 L 5.457031 8.800781 C 4.945312 8.800781 4.535156 8.390625 4.535156 7.878906 L 4.535156 4.15625 C 4.535156 3.644531 4.945312 3.234375 5.457031 3.234375 Z M 5.457031 3.234375 "/>
<path style=" stroke:none;fill-rule:nonzero;fill:rgb(68.235296%,83.529413%,50.588238%);fill-opacity:1;" d="M 1.984375 5.148438 C 1.433594 5.148438 0.992188 5.589844 0.992188 6.140625 L 0.992188 20.03125 C 0.992188 20.582031 1.433594 21.027344 1.984375 21.027344 L 21.832031 21.027344 C 22.378906 21.027344 22.824219 20.582031 22.824219 20.03125 L 22.824219 7.628906 L 9.425781 7.628906 C 8.878906 7.628906 8.433594 7.1875 8.433594 6.636719 L 8.433594 5.148438 Z M 1.984375 5.148438 "/>
<path style=" stroke:none;fill-rule:nonzero;fill:url(#linear2);" d="M 1.984375 5.148438 C 1.433594 5.148438 0.992188 5.589844 0.992188 6.140625 L 0.992188 20.03125 C 0.992188 20.582031 1.433594 21.027344 1.984375 21.027344 L 21.832031 21.027344 C 22.378906 21.027344 22.824219 20.582031 22.824219 20.03125 L 22.824219 7.628906 L 9.425781 7.628906 C 8.878906 7.628906 8.433594 7.1875 8.433594 6.636719 L 8.433594 5.148438 Z M 1.984375 5.148438 "/>
<path style=" stroke:none;fill-rule:nonzero;fill:rgb(0%,0%,0%);fill-opacity:0.196078;" d="M 1.984375 21.027344 C 1.433594 21.027344 0.992188 20.582031 0.992188 20.03125 L 0.992188 19.910156 C 0.992188 20.457031 1.433594 20.902344 1.984375 20.902344 L 21.832031 20.902344 C 22.378906 20.902344 22.824219 20.457031 22.824219 19.910156 L 22.824219 20.03125 C 22.824219 20.582031 22.378906 21.027344 21.832031 21.027344 Z M 1.984375 21.027344 "/>
<path style=" stroke:none;fill-rule:nonzero;fill:rgb(100%,100%,100%);fill-opacity:0.392157;" d="M 1.984375 5.210938 C 1.433594 5.210938 0.992188 5.652344 0.992188 6.203125 L 0.992188 6.328125 C 0.992188 5.777344 1.433594 5.335938 1.984375 5.335938 L 8.433594 5.335938 L 8.433594 5.210938 Z M 1.984375 5.210938 "/>
<path style=" stroke:none;fill-rule:nonzero;fill:rgb(100%,100%,100%);fill-opacity:0.392157;" d="M 9.363281 7.753906 C 8.816406 7.753906 8.371094 7.3125 8.371094 6.761719 L 8.371094 6.636719 C 8.371094 7.1875 8.816406 7.628906 9.363281 7.628906 L 22.824219 7.628906 L 22.824219 7.753906 Z M 9.363281 7.753906 "/>
<path style=" stroke:none;fill-rule:nonzero;fill:rgb(12.941177%,12.941177%,12.941177%);fill-opacity:1;" d="M 1.984375 5.078125 C 1.398438 5.078125 0.921875 5.554688 0.921875 6.140625 L 0.921875 20.03125 C 0.921875 20.621094 1.398438 21.097656 1.984375 21.097656 L 21.832031 21.097656 C 22.417969 21.097656 22.894531 20.621094 22.894531 20.03125 L 22.894531 7.488281 L 9.425781 7.488281 C 8.914062 7.488281 8.503906 7.078125 8.503906 6.566406 L 8.503906 5.078125 Z M 1.984375 5.21875 L 8.363281 5.21875 L 8.363281 6.566406 C 8.363281 7.15625 8.839844 7.628906 9.425781 7.628906 L 22.753906 7.628906 L 22.753906 20.03125 C 22.753906 20.546875 22.34375 20.957031 21.832031 20.957031 L 1.984375 20.957031 C 1.472656 20.957031 1.0625 20.546875 1.0625 20.03125 L 1.0625 6.140625 C 1.0625 5.628906 1.472656 5.21875 1.984375 5.21875 Z M 1.984375 5.21875 "/>
<path style=" stroke:none;fill-rule:nonzero;fill:rgb(54.509807%,76.47059%,29.019609%);fill-opacity:1;" d="M 11.90625 9.613281 C 10.53125 9.613281 9.425781 10.71875 9.425781 12.09375 L 9.425781 12.40625 L 9.429688 12.40625 C 9.429688 12.414062 9.425781 12.425781 9.425781 12.4375 C 9.425781 12.523438 9.496094 12.589844 9.582031 12.589844 L 10.265625 12.589844 C 10.351562 12.589844 10.417969 12.523438 10.417969 12.4375 C 10.417969 12.425781 10.417969 12.414062 10.414062 12.40625 L 10.417969 12.40625 L 10.417969 12.09375 C 10.417969 11.269531 11.082031 10.605469 11.90625 10.605469 C 12.730469 10.605469 13.394531 11.269531 13.394531 12.09375 L 13.394531 13.582031 L 8.683594 13.582031 C 8.546875 13.582031 8.433594 13.695312 8.433594 13.832031 L 8.433594 17.304688 C 8.433594 17.441406 8.546875 17.550781 8.683594 17.550781 L 15.132812 17.550781 C 15.269531 17.550781 15.378906 17.441406 15.378906 17.304688 L 15.378906 13.832031 C 15.378906 13.695312 15.269531 13.582031 15.132812 13.582031 L 14.386719 13.582031 L 14.386719 12.09375 C 14.386719 10.71875 13.28125 9.613281 11.90625 9.613281 Z M 11.90625 14.328125 C 12.320312 14.328125 12.652344 14.660156 12.652344 15.070312 C 12.652344 15.292969 12.554688 15.492188 12.402344 15.628906 L 12.402344 16.558594 C 12.402344 16.699219 12.292969 16.808594 12.15625 16.808594 L 11.660156 16.808594 C 11.523438 16.808594 11.410156 16.699219 11.410156 16.558594 L 11.410156 15.628906 C 11.257812 15.492188 11.164062 15.292969 11.164062 15.070312 C 11.164062 14.660156 11.496094 14.328125 11.90625 14.328125 Z M 11.90625 14.328125 "/>
<path style=" stroke:none;fill-rule:nonzero;fill:rgb(0%,0%,0%);fill-opacity:0.235294;" d="M 11.90625 9.613281 C 10.53125 9.613281 9.425781 10.71875 9.425781 12.09375 L 9.425781 12.28125 C 9.425781 10.90625 10.53125 9.800781 11.90625 9.800781 C 13.28125 9.800781 14.386719 10.90625 14.386719 12.28125 L 14.386719 12.09375 C 14.386719 10.71875 13.28125 9.613281 11.90625 9.613281 Z M 8.683594 13.582031 C 8.546875 13.582031 8.433594 13.695312 8.433594 13.832031 L 8.433594 14.015625 C 8.433594 13.878906 8.546875 13.769531 8.683594 13.769531 L 13.394531 13.769531 L 13.394531 13.582031 Z M 14.386719 13.582031 L 14.386719 13.769531 L 15.132812 13.769531 C 15.269531 13.769531 15.378906 13.878906 15.378906 14.015625 L 15.378906 13.832031 C 15.378906 13.695312 15.269531 13.582031 15.132812 13.582031 Z M 11.167969 15.164062 C 11.164062 15.195312 11.164062 15.226562 11.164062 15.257812 C 11.164062 15.480469 11.257812 15.675781 11.410156 15.8125 L 11.410156 15.628906 C 11.28125 15.511719 11.191406 15.347656 11.167969 15.164062 Z M 12.644531 15.164062 C 12.621094 15.347656 12.535156 15.511719 12.402344 15.628906 L 12.402344 15.8125 C 12.554688 15.675781 12.652344 15.480469 12.652344 15.257812 C 12.652344 15.226562 12.648438 15.195312 12.644531 15.164062 Z M 11.410156 16.558594 L 11.410156 16.746094 C 11.410156 16.882812 11.523438 16.996094 11.660156 16.996094 L 12.15625 16.996094 C 12.292969 16.996094 12.402344 16.882812 12.402344 16.746094 L 12.402344 16.558594 C 12.402344 16.699219 12.292969 16.808594 12.15625 16.808594 L 11.660156 16.808594 C 11.523438 16.808594 11.410156 16.699219 11.410156 16.558594 Z M 11.410156 16.558594 "/>
<path style=" stroke:none;fill-rule:nonzero;fill:rgb(100%,100%,100%);fill-opacity:0.392157;" d="M 11.90625 10.59375 C 11.082031 10.59375 10.417969 11.257812 10.417969 12.082031 L 10.417969 12.28125 C 10.417969 11.457031 11.082031 10.792969 11.90625 10.792969 C 12.730469 10.792969 13.394531 11.457031 13.394531 12.28125 L 13.394531 12.082031 C 13.394531 11.257812 12.730469 10.59375 11.90625 10.59375 Z M 9.425781 12.390625 L 9.425781 12.421875 C 9.425781 12.410156 9.429688 12.402344 9.429688 12.390625 Z M 9.425781 12.421875 L 9.425781 12.589844 L 9.429688 12.589844 C 9.429688 12.601562 9.425781 12.613281 9.425781 12.621094 C 9.425781 12.707031 9.496094 12.777344 9.582031 12.777344 L 10.265625 12.777344 C 10.351562 12.777344 10.417969 12.707031 10.417969 12.621094 C 10.417969 12.613281 10.417969 12.601562 10.414062 12.589844 L 10.417969 12.589844 L 10.417969 12.421875 C 10.417969 12.507812 10.351562 12.578125 10.265625 12.578125 L 9.582031 12.578125 C 9.496094 12.578125 9.425781 12.507812 9.425781 12.421875 Z M 10.417969 12.421875 L 10.417969 12.390625 L 10.414062 12.390625 C 10.417969 12.402344 10.417969 12.410156 10.417969 12.421875 Z M 11.90625 14.3125 C 11.496094 14.3125 11.164062 14.644531 11.164062 15.058594 C 11.164062 15.09375 11.164062 15.125 11.171875 15.15625 C 11.21875 14.792969 11.527344 14.511719 11.90625 14.511719 C 12.285156 14.511719 12.597656 14.792969 12.644531 15.15625 C 12.648438 15.125 12.652344 15.09375 12.652344 15.058594 C 12.652344 14.644531 12.320312 14.3125 11.90625 14.3125 Z M 8.433594 17.292969 L 8.433594 17.492188 C 8.433594 17.628906 8.546875 17.738281 8.683594 17.738281 L 15.132812 17.738281 C 15.269531 17.738281 15.378906 17.628906 15.378906 17.492188 L 15.378906 17.292969 C 15.378906 17.429688 15.269531 17.539062 15.132812 17.539062 L 8.683594 17.539062 C 8.546875 17.539062 8.433594 17.429688 8.433594 17.292969 Z M 8.433594 17.292969 "/>
<path style=" stroke:none;fill-rule:nonzero;fill:rgb(12.941177%,12.941177%,12.941177%);fill-opacity:1;" d="M 11.90625 9.542969 C 10.496094 9.542969 9.355469 10.683594 9.355469 12.09375 L 9.355469 12.40625 C 9.355469 12.410156 9.355469 12.414062 9.359375 12.417969 C 9.359375 12.425781 9.355469 12.429688 9.355469 12.4375 C 9.355469 12.558594 9.457031 12.660156 9.582031 12.660156 L 10.265625 12.660156 C 10.386719 12.660156 10.488281 12.558594 10.488281 12.4375 C 10.488281 12.429688 10.488281 12.425781 10.488281 12.417969 C 10.488281 12.414062 10.488281 12.410156 10.488281 12.40625 L 10.488281 12.09375 C 10.488281 11.308594 11.121094 10.675781 11.90625 10.675781 C 12.695312 10.675781 13.324219 11.308594 13.324219 12.09375 L 13.324219 13.511719 L 8.683594 13.511719 C 8.507812 13.511719 8.363281 13.65625 8.363281 13.832031 L 8.363281 17.304688 C 8.363281 17.480469 8.507812 17.621094 8.683594 17.621094 L 15.132812 17.621094 C 15.308594 17.621094 15.449219 17.480469 15.449219 17.304688 L 15.449219 13.832031 C 15.449219 13.65625 15.308594 13.511719 15.132812 13.511719 L 14.457031 13.511719 L 14.457031 12.09375 C 14.457031 10.683594 13.320312 9.542969 11.90625 9.542969 Z M 11.90625 9.683594 C 13.242188 9.683594 14.316406 10.757812 14.316406 12.09375 L 14.316406 13.582031 C 14.316406 13.621094 14.347656 13.652344 14.386719 13.652344 L 15.132812 13.652344 C 15.230469 13.652344 15.308594 13.730469 15.308594 13.832031 L 15.308594 17.304688 C 15.308594 17.402344 15.230469 17.480469 15.132812 17.480469 L 8.683594 17.480469 C 8.582031 17.480469 8.503906 17.402344 8.503906 17.304688 L 8.503906 13.832031 C 8.503906 13.730469 8.582031 13.652344 8.683594 13.652344 L 13.394531 13.652344 C 13.433594 13.652344 13.464844 13.621094 13.464844 13.582031 L 13.464844 12.09375 C 13.464844 11.234375 12.769531 10.535156 11.90625 10.535156 C 11.046875 10.535156 10.347656 11.234375 10.347656 12.09375 L 10.347656 12.382812 C 10.34375 12.394531 10.34375 12.40625 10.347656 12.417969 C 10.347656 12.425781 10.347656 12.429688 10.347656 12.4375 C 10.347656 12.484375 10.3125 12.519531 10.265625 12.519531 L 9.582031 12.519531 C 9.535156 12.519531 9.496094 12.484375 9.496094 12.4375 C 9.496094 12.429688 9.496094 12.425781 9.5 12.417969 C 9.5 12.40625 9.5 12.394531 9.496094 12.382812 L 9.496094 12.09375 C 9.496094 10.757812 10.570312 9.683594 11.90625 9.683594 Z M 11.90625 14.257812 C 11.457031 14.257812 11.09375 14.621094 11.09375 15.070312 C 11.09375 15.300781 11.1875 15.507812 11.339844 15.65625 L 11.339844 16.558594 C 11.339844 16.734375 11.484375 16.878906 11.660156 16.878906 L 12.15625 16.878906 C 12.332031 16.878906 12.472656 16.734375 12.472656 16.558594 L 12.472656 15.65625 C 12.625 15.507812 12.722656 15.300781 12.722656 15.070312 C 12.722656 14.621094 12.355469 14.257812 11.90625 14.257812 Z M 11.90625 14.398438 C 12.28125 14.398438 12.582031 14.695312 12.582031 15.070312 C 12.582031 15.273438 12.496094 15.453125 12.355469 15.574219 C 12.339844 15.589844 12.332031 15.605469 12.332031 15.628906 L 12.332031 16.558594 C 12.332031 16.660156 12.253906 16.738281 12.15625 16.738281 L 11.660156 16.738281 C 11.558594 16.738281 11.480469 16.660156 11.480469 16.558594 L 11.480469 15.628906 C 11.480469 15.605469 11.472656 15.589844 11.457031 15.574219 C 11.320312 15.453125 11.234375 15.273438 11.234375 15.070312 C 11.234375 14.695312 11.53125 14.398438 11.90625 14.398438 Z M 11.90625 14.398438 "/>
</g>
</svg>

<svg xmlns="http://www.w3.org/2000/svg" width="24" height="24"><defs><linearGradient id="a" gradientUnits="userSpaceOnUse" x1="254" y1="233.5" x2="254" y2="254.667" gradientTransform="matrix(.04688 0 0 .04688 0 10.08)"><stop offset="0" stop-opacity=".275"/><stop offset="1" stop-opacity="0"/></linearGradient><radialGradient id="b" gradientUnits="userSpaceOnUse" cx="450.909" cy="189.579" fx="450.909" fy="189.579" r="21.167" gradientTransform="matrix(0 -.0586 -.10548 0 40.586 47.697)"><stop offset="0" stop-opacity=".314"/><stop offset=".222" stop-opacity=".275"/><stop offset="1" stop-opacity="0"/></radialGradient><radialGradient id="c" gradientUnits="userSpaceOnUse" cx="450.909" cy="189.579" fx="450.909" fy="189.579" r="21.167" gradientTransform="matrix(0 .0586 .10548 0 -16.772 -5.646)"><stop offset="0" stop-opacity=".314"/><stop offset=".222" stop-opacity=".275"/><stop offset="1" stop-opacity="0"/></radialGradient><radialGradient id="d" gradientUnits="userSpaceOnUse" cx="450.909" cy="189.579" fx="450.909" fy="189.579" r="21.167" gradientTransform="matrix(0 -.0586 .10548 0 -16.772 47.697)"><stop offset="0" stop-opacity=".314"/><stop offset=".222" stop-opacity=".275"/><stop offset="1" stop-opacity="0"/></radialGradient><radialGradient id="e" gradientUnits="userSpaceOnUse" cx="450.909" cy="189.579" fx="450.909" fy="189.579" r="21.167" gradientTransform="matrix(0 .0586 -.10548 0 40.586 -5.646)"><stop offset="0" stop-opacity=".314"/><stop offset=".222" stop-opacity=".275"/><stop offset="1" stop-opacity="0"/></radialGradient><linearGradient id="f" gradientUnits="userSpaceOnUse" x1="254" y1="-147.5" x2="254" y2="-31.083" gradientTransform="matrix(.04688 0 0 .04688 0 10.08)"><stop offset="0" stop-color="#a4a4a4" stop-opacity="0"/><stop offset="1" stop-color="#fff" stop-opacity=".196"/></linearGradient><linearGradient id="g" gradientUnits="userSpaceOnUse" x1="254" y1="233.5" x2="254" y2="-105.167" gradientTransform="matrix(.04688 0 0 .04688 0 10.08)"><stop offset="0" stop-color="#585858" stop-opacity="0"/><stop offset="1" stop-color="#fafafa" stop-opacity=".196"/></linearGradient><linearGradient id="h" gradientUnits="userSpaceOnUse" x1="960" y1="255.118" x2="960" y2="1695.118"><stop offset="0" stop-color="#a4a4a4" stop-opacity="0"/><stop offset="1" stop-color="#fff" stop-opacity=".196"/></linearGradient></defs><path d="M2.977 21.027H20.84v.993H2.977zm0 0" fill="url(#a)"/><path d="M20.84 21.027h1.984v-.996H20.84zm0 0" fill="url(#b)"/><path d="M2.977 21.027H.992v.993h1.985zm0 0" fill="url(#c)"/><path d="M2.977 21.027H.992v-.996h1.985zm0 0" fill="url(#d)"/><path d="M20.84 21.027h1.984v.993H20.84zm0 0" fill="url(#e)"/><path d="M5.457 3.164h16.125c.547 0 .992.445.992.992V7.88a.994.994 0 0 1-.992.992H5.457a.994.994 0 0 1-.992-.992V4.156c0-.547.445-.992.992-.992zm0 0" fill="#7cb342"/><path d="M5.457 3.164h16.125c.547 0 .992.445.992.992V7.88a.994.994 0 0 1-.992.992H5.457a.994.994 0 0 1-.992-.992V4.156c0-.547.445-.992.992-.992zm0 0" fill="url(#f)"/><path d="M5.457 3.164a.989.989 0 0 0-.992.992v.125c0-.55.441-.992.992-.992h16.125c.55 0 .992.441.992.992v-.125a.989.989 0 0 0-.992-.992zm0 0" fill="#e6e6e6" fill-opacity=".588"/><path d="M5.457 3.094c-.586 0-1.062.476-1.062 1.062V7.88c0 .586.476 1.062 1.062 1.062h16.125c.586 0 1.063-.476 1.063-1.062V4.156c0-.586-.477-1.062-1.063-1.062zm0 .14h16.125c.512 0 .922.41.922.922V7.88c0 .512-.41.922-.922.922H5.457a.919.919 0 0 1-.922-.922V4.156c0-.511.41-.922.922-.922zm0 0" fill="#212121"/><path d="M1.984 5.148a.989.989 0 0 0-.992.993v13.89c0 .551.442.996.992.996h19.848a.994.994 0 0 0 .992-.996V7.63H9.426a.991.991 0 0 1-.992-.992V5.148zm0 0" fill="#9ccc65"/><path d="M1.984 5.148a.989.989 0 0 0-.992.993v13.89c0 .551.442.996.992.996h19.848a.994.994 0 0 0 .992-.996V7.63H9.426a.991.991 0 0 1-.992-.992V5.148zm0 0" fill="url(#g)"/><path d="M1.984 21.027a.992.992 0 0 1-.992-.996v-.12c0 .546.442.991.992.991h19.848a.994.994 0 0 0 .992-.992v.121c0 .551-.445.996-.992.996zm0 0" fill-opacity=".196"/><path d="M1.984 5.148a.989.989 0 0 0-.992.993v.125c0-.551.442-.993.992-.993h6.45v-.125zm0 0M9.363 7.691a.991.991 0 0 1-.992-.992v-.125c0 .551.445.996.992.992h13.461v.125zm0 0" fill="#e6e6e6" fill-opacity=".937"/><path d="M1.984 5.078c-.586 0-1.062.477-1.062 1.063v13.89c0 .59.476 1.067 1.062 1.067h19.848c.586 0 1.063-.477 1.063-1.067V7.488H9.425a.919.919 0 0 1-.921-.922V5.078zm0 .14h6.38v1.348c0 .59.476 1.063 1.062 1.063h13.328V20.03a.92.92 0 0 1-.922.926H1.984a.92.92 0 0 1-.921-.926V6.141c0-.512.41-.922.921-.922zm0 0" fill="#212121"/><path d="M11.906 9.613a2.474 2.474 0 0 0-2.48 2.48h.992c0-.823.664-1.488 1.488-1.488s1.489.665 1.489 1.489v1.488H8.684a.252.252 0 0 0-.25.25v3.473c0 .136.113.246.25.246h6.449c.137 0 .246-.11.246-.246v-3.473c0-.137-.11-.25-.246-.25h-.746v-1.488a2.474 2.474 0 0 0-2.48-2.48zm0 0" fill="#7cb342"/><path d="M959.908 775.044c-110.855 0-199.98 89.125-199.98 199.981h79.992c0-66.45 53.538-119.988 119.988-119.988s119.989 53.538 119.989 119.988v119.989H700.09c-11.023 0-20.156 9.133-20.156 20.155v279.973c0 11.023 9.133 19.841 20.156 19.841h519.95a19.758 19.758 0 0 0 19.84-19.84v-279.974c0-11.022-8.817-20.155-19.84-20.155h-60.152V975.025c0-110.856-89.125-199.98-199.98-199.98zm0 0" transform="scale(.0124)" fill="url(#h)" stroke-width="11.339" stroke-linecap="round" stroke-linejoin="round" stroke="#212121"/></svg>
